icons/intestine_fill.svg

<svg width="48" height="48" viewBox="0 0 48 48" fill="none" xmlns="http://www.w3.org/2000/svg">
<path d="M26.2 4C27.8569 4 29.2 5.34315 29.2 7V11.8769C29.2 12.7103 28.9144 13.5172 28.3634 14.1676C27.8644 14.7568 27.2732 15.0716 26.8522 15.2434C26.064 15.565 25.2071 15.6459 24.6429 15.6823C24.0379 15.7213 23.36 15.7259 22.7505 15.73L22.6768 15.7305C22.0123 15.735 21.379 15.7403 20.7581 15.7731C19.4258 15.8434 18.6096 16.0283 18.1898 16.258C18.1063 16.3037 18.066 16.3367 18.0494 16.3529C18.2255 16.4205 18.4631 16.4925 18.7744 16.5615C20.1924 16.8759 22.1332 16.9383 24.5214 17.015L25.0984 17.0337C27.5102 17.1128 30.4236 17.2279 32.7451 17.9315C33.9361 18.2925 35.2493 18.8848 36.2859 19.9451C37.4045 21.0894 38 22.5752 38 24.2615C38 26.0512 37.289 27.5996 35.9694 28.6936C34.7921 29.6696 33.3442 30.1067 32.0942 30.3318C29.6993 30.7631 26.6763 30.622 24.1036 30.502L23.8608 30.4907C20.9864 30.3572 18.6275 30.2662 16.9768 30.5678C16.5988 30.6369 16.3228 30.7168 16.1294 30.793C16.0783 30.8131 16.036 30.8318 16.0014 30.8484C16.0073 31.0329 16.0307 31.1524 16.05 31.222C16.0712 31.2982 16.0916 31.3299 16.0979 31.3392C16.1027 31.3466 16.1605 31.4351 16.4274 31.5525C17.1024 31.8497 18.2904 31.9881 20.0269 31.9458C20.8178 31.9265 21.6166 31.8753 22.4349 31.8228L22.5152 31.8176C23.3257 31.7657 24.1994 31.7102 24.9757 31.7087C25.6783 31.7074 26.6714 31.741 27.5724 32.0533C28.0523 32.2196 28.7205 32.5362 29.2823 33.168C29.9031 33.8661 30.2 34.7318 30.2 35.6V41C30.2 42.6569 28.8569 44 27.2 44C25.5431 44 24.2 42.6569 24.2 41V37.73C23.8169 37.7474 23.3863 37.7741 22.8989 37.8054L22.7825 37.8128C21.9917 37.8636 21.0862 37.9217 20.1731 37.944C18.3596 37.9882 15.9976 37.9189 14.0101 37.0441C12.9513 36.578 11.8965 35.8407 11.1227 34.6929C10.3429 33.5363 10 32.1874 10 30.759C10 28.9705 10.7056 27.4201 12.0214 26.3204C13.1974 25.3374 14.6457 24.8945 15.8982 24.6656C18.3073 24.2254 21.3485 24.3671 23.9305 24.4874L24.1392 24.4971C27.0156 24.6307 29.3764 24.7247 31.0308 24.4268C31.4096 24.3586 31.6864 24.2794 31.8804 24.2038C31.9247 24.1865 31.9624 24.1703 31.9942 24.1556C31.9932 24.1475 31.9921 24.1407 31.9911 24.1351C31.9264 24.0716 31.6729 23.8761 31.0049 23.6736C29.5764 23.2407 27.4898 23.1154 24.9016 23.0304C24.673 23.0229 24.4395 23.0158 24.2022 23.0085H24.2022C22.0041 22.941 19.4789 22.8634 17.4756 22.4193C16.3536 22.1705 15.042 21.7394 13.9659 20.8637C12.7503 19.8745 12 18.4449 12 16.7179C12 15.4732 12.2828 14.2876 12.9161 13.2434C13.5465 12.2038 14.4151 11.4838 15.3102 10.9942C16.9904 10.075 18.9742 9.85886 20.4419 9.78141C21.221 9.7403 21.9877 9.73505 22.6357 9.73061C22.8378 9.72923 23.0253 9.7279 23.2 9.726V7C23.2 5.34315 24.5431 4 26.2 4Z" fill="black"/>
</svg>

<svg
  xmlns="http://www.w3.org/2000/svg"
  width="24"
  height="24"
  viewBox="0 0 24 24"
  fill="none"
  stroke="currentColor"
  stroke-width="2"
  stroke-linecap="round"
  stroke-linejoin="round"
>
  <path d="M26.2 4a3 3 0 0 1 3 3v4.877c0 .833-.286 1.64-.837 2.29-.499.59-1.09.905-1.51 1.076-.789.322-1.646.403-2.21.44-.605.038-1.283.043-1.893.047h-.073c-.665.005-1.298.01-1.919.043-1.332.07-2.148.255-2.568.485a.7.7 0 0 0-.14.095c.175.067.413.14.724.208 1.418.315 3.36.377 5.747.454l.577.019c2.412.079 5.326.194 7.647.898 1.191.36 2.504.953 3.54 2.013C37.406 21.09 38 22.575 38 24.262c0 1.79-.711 3.338-2.03 4.432-1.178.976-2.626 1.413-3.876 1.638-2.395.431-5.418.29-7.99.17l-.243-.011c-2.875-.134-5.233-.225-6.884.077-.378.069-.654.149-.848.225q-.075.03-.128.055c.006.185.03.304.049.374a.4.4 0 0 0 .048.117c.005.008.063.096.33.213.674.298 1.862.436 3.599.394.79-.02 1.59-.07 2.408-.123l.08-.005c.81-.052 1.684-.108 2.46-.11.703 0 1.696.033 2.597.345.48.167 1.149.483 1.71 1.115.621.698.918 1.564.918 2.432V41a3 3 0 1 1-6 0v-3.27c-.383.017-.814.044-1.301.075l-.117.008c-.79.05-1.696.109-2.609.131-1.813.044-4.175-.025-6.163-.9-1.059-.466-2.113-1.203-2.887-2.351-.78-1.157-1.123-2.506-1.123-3.934 0-1.788.706-3.339 2.021-4.439 1.176-.983 2.625-1.425 3.877-1.654 2.41-.44 5.45-.299 8.032-.179l.21.01c2.876.134 5.236.228 6.89-.07.38-.068.656-.148.85-.223l.114-.048-.003-.02c-.065-.064-.318-.26-.986-.462-1.429-.433-3.515-.559-6.103-.644l-.7-.021c-2.198-.068-4.723-.146-6.726-.59-1.122-.248-2.434-.68-3.51-1.555-1.216-.99-1.966-2.42-1.966-4.146 0-1.245.283-2.43.916-3.475.63-1.04 1.5-1.76 2.394-2.249 1.68-.919 3.664-1.135 5.132-1.213.779-.04 1.546-.046 2.194-.05l.564-.005V7a3 3 0 0 1 3-3" />
</svg>
